dist/img/logo.svg

<svg width="100" height="100" viewBox="0 0 100 100" fill="none" xmlns="http://www.w3.org/2000/svg">
<rect width="100" height="100" fill="#FFFEFE"/>
<path d="M12.4097 65.7798C13.6735 65.0812 14.1656 66.221 13.3465 66.453C11.5359 66.9659 12.1039 69.4426 13.915 69.9197C15.2146 70.262 18.7825 69.7927 19.6671 69.5702C19.8435 69.4927 21.5683 69.4219 23.3444 69.4036C25.1205 69.3852 27.9478 70.1477 28.7012 70.2579C29.4548 70.3683 30.6838 70.5888 31.4461 70.5979C32.2086 70.6071 33.4601 70.12 33.4827 70.1154C33.5049 70.1108 33.5677 70.0421 33.7159 69.8675C33.8639 69.6928 34.3527 69.3484 34.3885 69.353C34.4245 69.3576 34.4783 69.4817 34.5052 69.7021C34.5321 69.9226 34.4155 70.0788 34.4155 70.0788C34.4155 70.0788 35.1108 69.895 35.1108 70.0051C35.1108 70.1154 34.9269 70.4369 34.9088 70.4691C34.891 70.5014 35.6266 71.0664 35.8104 71.3283C35.9943 71.59 35.9226 71.5762 35.9764 71.8842C36.0302 72.1918 36.5012 72.9727 36.5191 73.0509C36.5372 73.1289 36.5236 73.1426 36.4474 73.207C36.3711 73.2714 36.3846 73.2345 36.2949 73.3219C36.2051 73.4092 35.8822 73.8087 35.5056 73.9926C35.1287 74.1762 35.0659 74.0201 34.7699 73.8455C34.4739 73.671 33.0925 73.8915 32.8323 74.0937C32.6195 74.259 32.1604 74.7074 32.0005 74.8649L31.9442 74.9206C31.9442 74.9206 31.8724 75.0309 31.7829 75.4535C31.6931 75.8761 31.729 76.2986 31.8367 76.997C31.9442 77.6952 33.0655 79.3121 33.2359 79.45C33.4063 79.5877 33.7114 79.7347 33.9266 79.9737C34.1419 80.2125 33.9535 80.3595 33.7202 80.4331C33.4872 80.5065 32.9129 80.3871 32.7335 80.3135C32.5543 80.24 32.4645 79.7256 31.8724 79.303C31.2804 78.8804 30.3475 78.1086 30.204 77.7228C30.0604 77.3368 29.9348 76.2712 29.9348 76.2712C29.9348 76.2712 29.8092 76.5652 29.4145 77.0612C29.0197 77.5573 28.1047 78.3842 28.1047 78.7334C28.1047 79.0825 28.2124 79.6521 28.3381 79.8726C28.4636 80.093 28.6431 80.1114 28.8044 80.1665L28.8865 80.1937C29.0248 80.2401 29.1694 80.3013 29.2889 80.5157C29.4324 80.7729 29.2709 80.8465 29.0019 80.8465C28.7329 80.8465 28.356 80.9751 27.8895 80.7914C27.4231 80.6075 26.5619 79.0458 26.3646 78.6599C26.1673 78.274 26.5978 77.5575 26.7773 77.2266C26.9566 76.8959 27.2079 76.4549 27.2079 76.4549C27.2079 76.4549 25.5574 76.4734 24.6962 76.2529C23.835 76.0323 22.8467 75.959 22.8467 75.959C22.8467 75.959 22.7748 76.3633 22.6314 76.9512C22.4878 77.5393 21.8061 78.2192 21.7342 78.4396C21.6625 78.6601 22.129 79.1194 22.3981 79.4135C22.6671 79.7074 23.2055 79.9096 23.4207 80.0566C23.636 80.2036 23.8871 80.4424 23.7435 80.7364C23.6 81.0305 23.4745 80.7732 23.2234 80.8283C22.9721 80.8835 22.3443 80.9752 21.9138 80.8835C21.4832 80.7915 21.4652 80.2402 20.8911 79.7442C20.317 79.248 19.725 78.6968 19.7788 78.3662C19.8325 78.0353 19.9044 76.547 19.8864 76.4552C19.8685 76.3633 19.1329 76.9697 18.3435 77.3554C17.5542 77.7414 15.9396 78.1366 15.8409 78.403C15.7422 78.6694 15.4193 79.9005 15.4731 80.2679C15.5269 80.6354 15.6256 80.8467 15.7243 81.0396L15.766 81.1214C15.8227 81.2355 15.814 81.2495 15.7243 81.3338C15.6166 81.4348 14.8362 81.3429 14.6658 81.1039C14.4954 80.8652 14.1815 79.4135 14.2981 79.092C14.4146 78.7705 15.0426 76.6573 15.2759 76.4735C15.509 76.2896 16.3523 75.7753 16.8187 74.6177C17.1883 73.7008 17.0737 72.2881 17.2331 71.4846C14.6713 71.4601 11.4208 71.728 11 68.1032C10.8825 67.0915 11.5352 66.2633 12.4097 65.7798ZM60.982 19L83.7412 74.1475C84.8501 76.8318 86.8196 78.1741 89.6498 78.1741H90.0001V80.0561H61.4196V78.1741C66.7302 77.9991 69.3854 76.7443 69.3854 74.41C69.3854 73.7681 69.2686 73.1699 69.0353 72.6156L64.8336 62.5051H44.3064L41.1552 70.5584C40.7467 71.6089 40.5424 72.6301 40.5424 73.6222C40.5424 76.4817 42.8767 77.9991 47.5452 78.1741V80.0561L35.9216 80.0592C36.7367 77.7057 38.5583 73.0728 38.6971 72.6988C38.8762 72.2157 39.1393 71.5498 39.1348 71.0605C39.1303 70.5712 39.2774 69.8454 39.006 68.9214C38.7347 67.9973 38.4119 67.2058 38.3644 66.7041C38.3172 66.2026 38.4692 64.8804 38.5199 64.0361C38.5706 63.1918 38.7978 62.6189 38.9036 62.5115C39.0093 62.404 38.9749 62.3161 39.265 62.2963C39.5551 62.2765 39.7185 62.2168 40.1357 62.2581C40.5527 62.2993 41.0225 62.1629 41.3769 62.1469C41.7312 62.1311 42.1074 62.1571 42.5763 61.8995C43.0453 61.6419 43.1268 61.4146 43.3122 61.2013C43.4977 60.9881 43.7298 60.6147 43.8068 60.4094C43.8837 60.2043 43.9285 60.0762 43.5415 59.9901C43.1544 59.9039 42.5338 59.5957 42.1048 59.5102C41.6758 59.4246 41.1562 59.316 40.9453 59.1193C40.7344 58.9227 40.639 58.6846 40.4882 58.5351C40.3374 58.3856 40.2533 58.3077 39.9114 58.1935C39.5698 58.0795 38.9857 57.7296 38.776 57.6751C38.5661 57.6205 38.2971 57.5609 38.2395 57.4444C38.1817 57.328 37.8377 56.5553 37.6945 56.198C37.5512 55.8409 37.2728 55.2351 37.1655 55.2478C37.0584 55.2609 36.9567 56.2007 36.7326 56.7617C36.5086 57.3227 36.1849 57.8472 36.1724 58.1354C36.16 58.4234 35.881 58.878 35.6622 59.2425C35.4435 59.607 34.7041 60.9811 34.4155 61.9709C34.127 62.9607 33.4066 64.2036 33.0385 64.5712C32.6702 64.9389 30.5901 66.2399 30.0422 66.6161C29.8783 66.7287 29.7512 66.8172 29.637 66.894L49.2884 19H60.982ZM54.2417 36.8572L45.6632 59.0038H63.3892L54.2417 36.8572Z" fill="#59443F"/>
</svg>

<svg width="100" height="100" fill="none" xmlns="http://www.w3.org/2000/svg"><path fill="#FFFEFE" d="M0 0h100v100H0z"/><path d="M12.41 65.78c1.264-.699 1.756.441.937.673-1.811.513-1.243 2.99.568 3.467 1.3.342 4.867-.127 5.752-.35.176-.077 1.901-.148 3.677-.166 1.776-.019 4.604.744 5.357.854.754.11 1.983.33 2.745.34.763.01 2.014-.478 2.037-.483.022-.004.085-.073.233-.247.148-.175.637-.52.672-.515.037.005.09.129.117.35.027.22-.09.376-.09.376s.696-.184.696-.074-.184.432-.202.464c-.018.032.718.597.901.86.184.261.113.247.166.555.054.308.525 1.089.543 1.167.018.078.005.092-.072.156-.076.064-.062.028-.152.115-.09.087-.413.487-.79.67-.376.184-.44.028-.735-.147-.296-.174-1.678.046-1.938.249-.212.165-.672.613-.831.77l-.057.057s-.072.11-.161.532c-.09.423-.054.846.054 1.544.107.698 1.229 2.315 1.399 2.453.17.138.475.285.69.524.216.239.027.385-.206.46-.233.073-.807-.047-.986-.12-.18-.074-.27-.588-.862-1.011-.592-.423-1.524-1.194-1.668-1.58-.144-.386-.27-1.452-.27-1.452s-.125.294-.52.79c-.394.496-1.31 1.323-1.31 1.672 0 .35.108.92.234 1.14.126.22.305.238.466.293l.083.028a.636.636 0 01.402.322c.143.257-.018.33-.287.33-.27 0-.646.13-1.112-.055-.467-.183-1.328-1.745-1.525-2.131-.198-.386.233-1.102.412-1.433.18-.331.43-.772.43-.772s-1.65.018-2.51-.202c-.862-.22-1.85-.294-1.85-.294s-.072.404-.216.992c-.143.588-.825 1.268-.897 1.489-.072.22.395.68.664.974.27.293.808.496 1.023.643.215.147.466.385.323.68-.144.294-.27.036-.52.091-.252.055-.88.147-1.31.055-.43-.091-.449-.643-1.023-1.139-.574-.496-1.166-1.047-1.112-1.378.053-.33.125-1.819.107-1.91-.017-.093-.753.514-1.543.9-.789.385-2.403.78-2.502 1.047-.099.266-.422 1.497-.368 1.865.054.367.153.579.251.772l.042.081c.057.115.048.129-.042.213-.107.1-.888.009-1.058-.23-.17-.239-.485-1.69-.368-2.012.117-.322.745-2.435.978-2.618.233-.184 1.076-.699 1.543-1.856.37-.917.255-2.33.414-3.133-2.562-.025-5.812.243-6.233-3.382-.117-1.011.535-1.84 1.41-2.323zM60.982 19l22.76 55.147c1.108 2.685 3.078 4.027 5.908 4.027H90v1.882H61.42v-1.882c5.31-.175 7.965-1.43 7.965-3.764 0-.642-.116-1.24-.35-1.794l-4.201-10.11H44.306l-3.15 8.052c-.41 1.05-.614 2.072-.614 3.064 0 2.86 2.335 4.377 7.003 4.552v1.882l-11.623.003c.815-2.353 2.636-6.986 2.775-7.36.18-.483.442-1.15.438-1.638-.005-.49.142-1.216-.129-2.14-.271-.924-.594-1.715-.642-2.217-.047-.501.105-1.824.156-2.668.05-.844.278-1.417.384-1.525.105-.107.07-.195.361-.215.29-.02.453-.08.87-.038.418.041.888-.095 1.242-.111s.73.01 1.2-.247c.468-.258.55-.485.735-.699.186-.213.418-.586.495-.792.077-.205.121-.333-.266-.419-.387-.086-1.007-.394-1.436-.48-.43-.085-.949-.194-1.16-.39-.21-.197-.306-.435-.457-.585-.15-.15-.235-.227-.577-.341-.341-.114-.925-.464-1.135-.519-.21-.054-.479-.114-.537-.23-.057-.117-.401-.89-.544-1.247-.144-.357-.422-.963-.53-.95-.107.013-.208.953-.432 1.514-.224.56-.548 1.085-.56 1.373-.013.288-.292.743-.51 1.108-.22.364-.959 1.738-1.247 2.728-.289.99-1.01 2.233-1.377 2.6-.369.368-2.449 1.669-2.997 2.045-.164.113-.29.201-.405.278L49.288 19h11.694zm-6.74 17.857l-8.579 22.147H63.39l-9.147-22.147z" fill="#59443F"/></svg>
